X: 28877
T: Mystery Inch, The
R: jig
M: 6/8
K: Amajor
Fca gec|eff ecB|ABc ecA|BcA cGA|
Fca gec|e2e ecB|ABc eag|1 fge cef:|2 fge cBA||
FAc BAE|cBA FAc|Bce eee|feB cAF|
DAc BAF|EAc BAF|GAe gbg|ece fcB|
AFE DcB|AFE cBA|FAc eee|feB cAF|
DAc BAF|EAc BAF|GAe gbg|ece fcB||

